X: 70
T: An Droichead
T: The Bridge
R: march
M: 4/4
L: 1/8
K: Gmaj
"G" B2d2-d4|"D" A6GF|"C"G6F2|"G"G8|"C"eg3-g4|"G"d6e2|"Am"c6B2|"C"c4 "G"BAG2|
"D" A4d4|"D7"d4def2|"G" g4G4|"C" e6d2|"Am"c6A2|"D"d4B2A2|1 "G"G4GABG|"D"A8:|2 "G"G6F2|G8-|G8||
"D"A4d4|d4e2d2|"Am"c4B2G2|"D"A6G2|A4d4|d4def2|"G"g6f2|g8|
"D"A4d4|d4fga2|"G"b4a2f2|"C"g4 "G"B2d2|"Am"c4 "Em7"B2G2|"D"A4B2d2|"Am"c4 "Em7"B2G2|"D"A8-|A8|| 

